X:1
T:Shirland, SM
T:Shirland, SM
T:Samuel Stanley, ca. 1796
T:Public Domain Courtesy of the Cyber Hymnal™
C:Samuel Stanley, ca. 1796
Z:Public Domain
Z:Courtesy of the Cyber Hymnal™
%%score ( 1 2 ) ( 3 4 )
L:1/8
Q:1/4=105
M:4/4
K:G
V:1 treble 
V:2 treble 
V:3 bass 
V:4 bass 
V:1
 [DG]2 | [FA]2 [GB]2 (cA) ([Fd][DF]) | [DG]6 [DG]2 | ([DF][FA]) [Ad]2 (Be) ([Fd][E^c]) | %4
 [Fd]6 (GB) | ([GB][FA]) ([FA][Ac]) ([Ac][GB]) ([GB][Bd]) | ([Bd][Ac]) ([Ac][GB]) [GB]2 [FA][FA] | %7
 (Bc) (de) [GB]2 [FA]2 | G6 |] %9
V:2
 x2 | x4 E2 x2 | x8 | x4 G2 x2 | x6 G2 | x8 | x8 | G2 G2 x4 | G6 |] %9
V:3
 [G,B,]2 | [D,D]2 [G,D]2 [C,C]2 (A,C) | [G,,B,]6 [G,,B,]2 | [D,A,]2 [F,A,]2 [G,B,]2 A,2 | %4
 [D,A,]6 (B,D) | [D,D]2 [D,D]2 [G,D]2 [G,D]2 | [F,D]2 [G,D]2 [D,D]3 [D,D] | %7
 ([G,D][E,E]) ([B,,D][C,G,]) (G,B,) (CC) | [G,,B,]6 |] %9
V:4
 x2 | x6 D,2 | x8 | x6 A,2 | x6 G,2 | x8 | x8 | x4 D,2 D,2 | x6 |] %9

